assets/icons/lib/refresh-ccw.svg

<svg class="Icon Icon-refresh-ccw" width="24" height="24" viewBox="0 0 24 24" fill="none" xmlns="http://www.w3.org/2000/svg">
<path fill-rule="evenodd" clip-rule="evenodd" d="M14.2123 2.24893C12.5647 1.87614 10.8495 1.9268 9.22684 2.39617C7.60928 2.86405 6.13615 3.73278 4.94399 4.92171L2 7.68805V4C2 3.44772 1.55228 3 1 3C0.447715 3 0 3.44772 0 4V10C0 10.5523 0.447715 11 1 11H7C7.55228 11 8 10.5523 8 10C8 9.44772 7.55228 9 7 9H3.52445L6.32466 6.36877C6.33228 6.36161 6.33978 6.35434 6.34717 6.34694C7.3025 5.39113 8.48439 4.69291 9.78256 4.31741C11.0807 3.94191 12.4529 3.90139 13.7709 4.19962C15.089 4.49785 16.31 5.12511 17.3201 6.02287C18.3302 6.92064 19.0964 8.05964 19.5472 9.33361C19.7314 9.85426 20.3028 10.127 20.8235 9.94273C21.3441 9.75849 21.6168 9.18707 21.4326 8.66642C20.8691 7.07396 19.9113 5.6502 18.6488 4.52799C17.3862 3.40579 15.8599 2.62171 14.2123 2.24893ZM20.4754 15H17C16.4477 15 16 14.5523 16 14C16 13.4477 16.4477 13 17 13H23C23.5523 13 24 13.4477 24 14V20C24 20.5523 23.5523 21 23 21C22.4477 21 22 20.5523 22 20V16.3118L19.0558 19.0783C17.8636 20.2673 16.3905 21.136 14.7729 21.6039C13.1502 22.0732 11.4351 22.1239 9.78749 21.7511C8.13991 21.3783 6.61361 20.5942 5.35102 19.472C4.08843 18.3498 3.13069 16.9261 2.56717 15.3336C2.38293 14.813 2.65564 14.2415 3.17629 14.0573C3.69694 13.8731 4.26836 14.1458 4.4526 14.6664C4.90342 15.9404 5.66961 17.0794 6.67968 17.9772C7.68976 18.8749 8.9108 19.5022 10.2289 19.8004C11.5469 20.0986 12.9191 20.0581 14.2172 19.6826C15.5154 19.3071 16.6973 18.6089 17.6526 17.6531L17.6661 17.6399L17.6751 17.6313L20.4754 15Z" fill="currentColor"/>
</svg>

<svg class="Icon Icon-refresh-ccw" viewBox="0 0 24 24" fill="none" xmlns="http://www.w3.org/2000/svg"><path fill-rule="evenodd" clip-rule="evenodd" d="M14.212 2.249a10 10 0 0 0-9.268 2.673L2 7.688V4a1 1 0 0 0-2 0v6a1 1 0 0 0 1 1h6a1 1 0 1 0 0-2H3.524l2.8-2.631a8 8 0 0 1 13.223 2.965 1 1 0 1 0 1.886-.668 10 10 0 0 0-7.22-6.417ZM20.475 15H17a1 1 0 1 1 0-2h6a1 1 0 0 1 1 1v6a1 1 0 1 1-2 0v-3.688l-2.944 2.766a10 10 0 0 1-16.489-3.744 1 1 0 0 1 1.886-.668 8 8 0 0 0 13.2 2.987l.013-.013.01-.009 2.8-2.631Z" fill="currentColor"/></svg>
